X: 23
T:Jackson's Bottle of Claret (#133)
M:6/8
L:1/8
S:Paul Alday's Pocket Volume etc., c.1800
K:G
D|G2 G A>GA|B2 g gdB|c2 A BGE|G>AG GED|
G2 G A>GA|B2 g gdB|c2 A BGE|G>AG G2:|
|:d|gfg efg|fdB B3|gfg efg|afd d2 f|
gfe agf|gfe edc|cBA BGE|G>AG G2:||

